X: 29591
T: Nora Sweeney's
R: jig
M: 6/8
K: Gmajor
DGB ABc|dcB c2a|gfg dBG|cAG FAF|
G2g dBG|cBc EFG|AdB c2c|1 AGF G2E:|2 AGF GBc||
d2d gdB|cAF DFA|B2d cAG|
[1 Aag fd^c|dBd gdB|cAF DFA|B3 cdc|AGF G2B:|
[2 Aag fef|gag dBd|c2c ABc|BAB cdc|AGF GB,C||

